flaticon/religion/christianity-1.svg

<svg xmlns="http://www.w3.org/2000/svg" width="32" height="32" viewBox="0 0 24 24">
    <path d="M 23.199219 11.601562 L 23.199219 8.800781 L 13.199219 8.800781 L 13.199219 6.398438 L 18 6.398438 L 18 3.601562 L 13.199219 3.601562 L 13.199219 0 L 10.398438 0 L 10.398438 3.601562 L 5.601562 3.601562 L 5.601562 6.398438 L 10.398438 6.398438 L 10.398438 8.800781 L 0.800781 8.800781 L 0.800781 11.601562 L 10.398438 11.601562 L 10.398438 15.773438 L 7.128906 13.886719 L 5.730469 16.3125 L 10.398438 19.007812 L 10.398438 24 L 13.199219 24 L 13.199219 20.625 L 16.46875 22.511719 L 17.871094 20.085938 L 13.199219 17.390625 L 13.199219 11.601562 Z M 16.777344 20.378906 L 16.175781 21.417969 L 12.398438 19.238281 L 12.398438 23.199219 L 11.199219 23.199219 L 11.199219 18.546875 L 6.824219 16.019531 L 7.421875 14.980469 L 11.199219 17.160156 L 11.199219 10.800781 L 1.601562 10.800781 L 1.601562 9.601562 L 11.199219 9.601562 L 11.199219 5.601562 L 6.398438 5.601562 L 6.398438 4.398438 L 11.199219 4.398438 L 11.199219 0.800781 L 12.398438 0.800781 L 12.398438 4.398438 L 17.199219 4.398438 L 17.199219 5.601562 L 12.398438 5.601562 L 12.398438 9.601562 L 22.398438 9.601562 L 22.398438 10.800781 L 12.398438 10.800781 L 12.398438 17.855469 Z M 16.777344 20.378906"/>
</svg>

<svg xmlns="http://www.w3.org/2000/svg" width="32" height="32" viewBox="0 0 24 24">
    <path d="M23.2 11.602V8.8h-10V6.398H18V3.602h-4.8V0h-2.802v3.602H5.602v2.796h4.796v2.403H.801v2.8h9.597v4.172l-3.27-1.886-1.398 2.425 4.668 2.696V24H13.2v-3.375l3.27 1.887 1.402-2.426L13.2 17.39V11.6zm-6.423 8.777l-.601 1.039-3.778-2.18V23.2H11.2v-4.652L6.824 16.02l.598-1.04 3.777 2.18V10.8H1.602V9.603h9.597v-4H6.4V4.398h4.8V.801h1.2v3.597h4.8v1.204h-4.8v4h10V10.8h-10v7.054zm0 0"/>
</svg>
